src/images/svg/symbols/step-indices-new.svg

<svg width="32" height="32" fill="none" xmlns="http://www.w3.org/2000/svg"><path d="M32 30H0v2h32v-2ZM2.5 18.6h.3l1.8 3.2c-.3.4-.4.9-.4 1.4 0 1.4 1.1 2.5 2.5 2.5s2.5-1.1 2.5-2.5c0-.5-.1-.9-.4-1.3l2.1-3.3h.4c1.4 0 2.5-1.1 2.5-2.5 0-.5-.1-1-.4-1.3l2.1-3.2h.8l2.1 3.2c-.3.4-.4.9-.4 1.3 0 1.4 1.1 2.5 2.5 2.5s2.5-1.1 2.5-2.5c0-.5-.1-1-.4-1.3l2.1-3.2h.4c1.4 0 2.5-1.1 2.5-2.5 0-.5-.2-1-.4-1.4l2-2.7h.3C30.9 5 32 3.9 32 2.5S30.9 0 29.5 0 27 1.1 27 2.5c0 .5.2 1 .5 1.4l-1.7 2.7h-.4c-1.4 0-2.5 1.1-2.5 2.5 0 .5.1 1 .4 1.3l-2.1 3.2h-.8l-2.1-3.2c.3-.4.4-.9.4-1.3 0-1.4-1.1-2.5-2.5-2.5s-2.5 1.1-2.5 2.5c0 .5.1 1 .4 1.3L12 13.6h-.4c-1.4 0-2.5 1.1-2.5 2.5 0 .5.2 1 .4 1.4l-2.1 3.2c-.2 0-.3-.1-.5-.1h-.4l-1.8-3.1c.1-.3.3-.8.3-1.4 0-1.4-1.1-2.5-2.5-2.5S0 14.7 0 16.1s1.1 2.5 2.5 2.5Z" fill="#85ACB0"/></svg>

<svg width="32" height="32" viewBox="0 0 32 32" fill="none" xmlns="http://www.w3.org/2000/svg">
<path d="M32 30H0V32H32V30Z" fill="#85ACB0"/>
<path d="M2.5 18.6C2.6 18.6 2.7 18.6 2.8 18.6L4.6 21.8C4.3 22.2 4.2 22.7 4.2 23.2C4.2 24.6 5.3 25.7 6.7 25.7C8.1 25.7 9.2 24.6 9.2 23.2C9.2 22.7 9.1 22.3 8.8 21.9L10.9 18.6C11 18.6 11.2 18.6 11.3 18.6C12.7 18.6 13.8 17.5 13.8 16.1C13.8 15.6 13.7 15.1 13.4 14.8L15.5 11.6C15.6 11.6 15.8 11.6 15.9 11.6C16 11.6 16.2 11.6 16.3 11.6L18.4 14.8C18.1 15.2 18 15.7 18 16.1C18 17.5 19.1 18.6 20.5 18.6C21.9 18.6 23 17.5 23 16.1C23 15.6 22.9 15.1 22.6 14.8L24.7 11.6C24.8 11.6 25 11.6 25.1 11.6C26.5 11.6 27.6 10.5 27.6 9.1C27.6 8.6 27.4 8.1 27.2 7.7L29.2 5C29.3 5 29.4 5 29.5 5C30.9 5 32 3.9 32 2.5C32 1.1 30.9 0 29.5 0C28.1 0 27 1.1 27 2.5C27 3 27.2 3.5 27.5 3.9L25.8 6.6C25.7 6.6 25.6 6.6 25.4 6.6C24 6.6 22.9 7.7 22.9 9.1C22.9 9.6 23 10.1 23.3 10.4L21.2 13.6C21.1 13.6 20.9 13.6 20.8 13.6C20.7 13.6 20.5 13.6 20.4 13.6L18.3 10.4C18.6 10 18.7 9.5 18.7 9.1C18.7 7.7 17.6 6.6 16.2 6.6C14.8 6.6 13.7 7.7 13.7 9.1C13.7 9.6 13.8 10.1 14.1 10.4L12 13.6C11.9 13.6 11.7 13.6 11.6 13.6C10.2 13.6 9.1 14.7 9.1 16.1C9.1 16.6 9.3 17.1 9.5 17.5L7.4 20.7C7.2 20.7 7.1 20.6 6.9 20.6C6.8 20.6 6.6 20.6 6.5 20.6L4.7 17.5C4.8 17.2 5 16.7 5 16.1C5 14.7 3.9 13.6 2.5 13.6C1.1 13.6 0 14.7 0 16.1C0 17.5 1.1 18.6 2.5 18.6Z" fill="#85ACB0"/>
</svg>
